trunk/WorldWind/resources/milstd2525/icons/ems/effaci---------.svg

<?xml version="1.0" encoding="UTF-8" standalone="no"?>
<!--
Copyright (C) 2012 United States Government as represented by the Administrator of the
National Aeronautics and Space Administration.
All Rights Reserved.
-->

<!--
MIL-STD-2525 tactical symbol icon image. During icon composition this image is multiplied by the desired frame color 
(e.g. black), then drawn on top of the frame and fill.
-->

<svg
   xmlns:dc="http://purl.org/dc/elements/1.1/"
   xmlns:cc="http://creativecommons.org/ns#"
   xmlns:rdf="http://www.w3.org/1999/02/22-rdf-syntax-ns#"
   xmlns:svg="http://www.w3.org/2000/svg"
   xmlns="http://www.w3.org/2000/svg"
   xmlns:sodipodi="http://sodipodi.sourceforge.net/DTD/sodipodi-0.dtd"
   xmlns:inkscape="http://www.inkscape.org/namespaces/inkscape"
   height="400px"
   viewBox="0 0 400 400"
   width="400px"
   id="svg2"
   version="1.1"
   inkscape:version="0.48.2 r9819"
   sodipodi:docname="effaci---------.svg">
  <metadata
     id="metadata38">
    <rdf:RDF>
      <cc:Work
         rdf:about="">
        <dc:format>image/svg+xml</dc:format>
        <dc:type
           rdf:resource="http://purl.org/dc/dcmitype/StillImage" />
      </cc:Work>
    </rdf:RDF>
  </metadata>
  <defs
     id="defs36" />
  <sodipodi:namedview
     pagecolor="#ffffff"
     bordercolor="#666666"
     borderopacity="1"
     objecttolerance="10"
     gridtolerance="10"
     guidetolerance="10"
     inkscape:pageopacity="0"
     inkscape:pageshadow="2"
     inkscape:window-width="705"
     inkscape:window-height="480"
     id="namedview34"
     showgrid="false"
     inkscape:zoom="1.18"
     inkscape:cx="205.86842"
     inkscape:cy="214.22573"
     inkscape:window-x="191"
     inkscape:window-y="150"
     inkscape:window-maximized="0"
     inkscape:current-layer="svg2" />
  <g
     style="stroke-width:0"
     transform="matrix(1.2,0,0,1.2,57,36)"
     id="g4">
    <g
       transform="scale(100,100)"
       id="g6">
      <path
         inkscape:connector-curvature="0"
         d="m 0.798685,1.21865 c 0,-0.06755 0.017453,-0.339228 0.058394,-0.339228 0.046606,0 0.061071,0.303968 0.061185,0.378168 1.14e-4,0.0741 -0.014339,0.37536 -0.061185,0.37536 -0.04263,0 -0.058394,-0.26777 -0.058394,-0.33645 z M 1.18796,1.22143 C 1.18796,1.16121 1.18019,1.09287 1.17158,1.04039 1.16663,1.01021 1.16245,0.985135 1.15575,0.956127 1.14927,0.928068 1.13769,0.905139 1.13235,0.882206 l 0.52274,0 c 0.03287,0 0.06118,0.281844 0.06118,0.344784 l 0,0.06673 c 0,0.06281 -0.02741,0.33923 -0.06118,0.33923 l -0.52274,0 C 1.13771,1.60993 1.14798,1.58682 1.15515,1.55843 1.16146,1.53342 1.16683,1.50532 1.17128,1.47724 1.17956,1.42509 1.18797,1.35803 1.18797,1.29929 z M 0.993323,1.24924 C 0.993323,1.17822 0.987417,1.11611 0.982201,1.05182 0.979721,1.02123 0.973473,0.98945 0.968988,0.96215 0.963701,0.929965 0.951669,0.9063 0.946055,0.882205 l 0.130685,0 c 0.0221,0 0.04303,0.139355 0.04838,0.171285 0.01121,0.06692 0.00704,0.13433 0.01509,0.202 C 1.14482,1.2943 1.13177,1.42162 1.12617,1.45994 1.12182,1.48973 1.11643,1.52181 1.109,1.55121 1.10133,1.58157 1.08705,1.61256 1.0823,1.63295 l -0.136245,0 C 0.951614,1.60909 0.963288,1.58574 0.969484,1.5535 0.97511,1.52426 0.979484,1.49687 0.982288,1.46621 0.987921,1.40459 0.993323,1.34234 0.993323,1.27426 z M 1.76632,1.25758 c 0,-0.11173 -0.02147,-0.305592 -0.05839,-0.375375 l 0.17795,0 c 0.05465,0.113886 0.0862,0.209285 0.0862,0.378155 0,0.07319 -0.00742,0.14825 -0.02166,0.20635 C 1.94178,1.50195 1.9345,1.52246 1.92374,1.55403 1.91522,1.57904 1.8924,1.61691 1.88866,1.63295 l -0.18073,0 C 1.74454,1.56375 1.76632,1.36875 1.76632,1.25758 z M 0.926591,1.2548 C 0.926591,1.18696 0.924918,1.11185 0.918044,1.04924 0.914619,1.01805 0.908729,0.986579 0.902717,0.956127 0.895989,0.922028 0.883166,0.901449 0.876544,0.876642 l 0.038925,0 c 0.052949,0 0.066732,0.272868 0.066732,0.347568 l 0,0.07229 c 0,0.08287 -0.01398,0.30858 -0.05561,0.33645 l -0.047268,0 C 0.919032,1.55791 0.926591,1.37452 0.926591,1.2548 z M 0.87376,0.86552 c -0.041972,0 -0.042929,0.030736 -0.053866,0.062917 C 0.810623,0.955724 0.805441,0.994752 0.801166,1.02649 0.792607,1.08996 0.788489,1.17613 0.787457,1.24635 c -4.29e-4,0.10577 0.011398,0.3648 0.064059,0.4005 l 0.172374,-0.00348 0.14739,0.0016 0.42264,-9e-4 c 0.0146,0 0.06006,0.02704 0.06674,0.03615 C 1.64521,1.7013 1.59187,1.69413 1.56334,1.69413 l -0.00556,0 c -0.01829,0 -0.03615,0.00974 -0.03615,0.0278 l 0,0.00278 c 0,0.06698 0.25025,0.12906 0.25025,0.20298 0,0.04471 -0.09949,0.05379 -0.14681,0.04671 C 1.57147,1.96638 1.51277,1.92769 1.47436,1.92769 1.3641,1.92769 1.27693,2.04255 1.15749,2.02767 1.06536,2.0162 1.04232,1.86374 0.901568,1.86374 l -0.027807,0 c -0.061894,0 -0.116094,0.03615 -0.175173,0.03615 C 0.669812,1.89989 0.67923,1.85255 0.652537,1.83193 0.628883,1.81366 0.605056,1.80962 0.569592,1.80366 0.520438,1.79539 0.403848,1.79753 0.403848,1.74696 l 0,-0.00557 c 0,-0.04435 0.275276,-0.01902 0.275276,-0.06673 0,-0.04644 -0.166327,-0.10311 -0.175173,-0.13625 0.00672,-0.00322 0.012161,-0.00556 0.022244,-0.00556 l 0.061169,0 0.13065,0.00623 L 0.787345,1.53068 0.807156,1.53326 0.806195,1.52153 0.780983,1.52126 C 0.75803,1.52126 0.729648,1.53308 0.707534,1.52949 0.685014,1.52584 0.655735,1.52778 0.628967,1.5274 0.60053,1.52699 0.492829,1.509 0.492829,1.54119 c 0,0.03809 0.125256,0.07036 0.155709,0.12791 C 0.631951,1.70045 0.526518,1.69826 0.48003,1.70635 0.448727,1.7118 0.418463,1.71129 0.400258,1.72946 0.378868,1.75082 0.403857,1.77619 0.422727,1.78647 0.45803,1.80571 0.547786,1.80746 0.593514,1.81866 0.621813,1.82559 0.647352,1.8325 0.657821,1.85723 0.667274,1.87956 0.669356,1.91101 0.704148,1.91101 l 0.002783,0 c 0.04389,0 0.105827,-0.03615 0.164051,-0.03615 l 0.022244,0 c 0.128534,0 0.141034,0.1537 0.255764,0.16132 C 1.2216,2.04101 1.25882,2.01919 1.3122,1.99632 1.34515,1.9822 1.42615,1.93881 1.46324,1.93881 l 0.00556,0 c 0.03784,0 0.06884,0.02159 0.10115,0.03232 0.03397,0.0113 0.0694,0.02051 0.11295,0.02051 l 0.01113,0 c 0.02574,0 0.04722,-0.00443 0.06641,-0.01144 C 1.78624,1.97077 1.78401,1.9599 1.78309,1.93039 1.78188,1.89157 1.7376,1.8628 1.71127,1.8465 1.68181,1.82827 1.64165,1.80819 1.60966,1.79239 1.59224,1.78379 1.57728,1.77323 1.56219,1.76201 1.53511,1.74187 1.54177,1.74952 1.52719,1.71915 1.55247,1.6814 1.67178,1.72342 1.67178,1.68022 1.67178,1.66677 1.62466,1.65145 1.61617,1.64407 l 0.13625,6.1e-4 0.11956,-6.1e-4 0,0.00557 0.04449,0 c 0.02403,0 0.07092,-0.14175 0.07898,-0.17406 C 2.01262,1.40669 2.02213,1.33398 2.02213,1.24924 2.02213,1.13713 1.98933,0.994375 1.95168,0.919288 1.94064,0.897264 1.93402,0.869193 1.90268,0.868185 1.87015,0.867138 1.83528,0.8683 1.80247,0.8683 c -0.06944,0 -0.12928,0 -0.19464,0 l -0.44767,0 L 0.912699,0.868229 0.873762,0.86552 z"
         style="fill:#000000;stroke-dasharray:10"
         id="path8" />
      <path
         inkscape:connector-curvature="0"
         d="M 0.807154,1.53326 0.787343,1.53068 0.718012,1.53908 0.587362,1.53285 l -0.061169,0 c -0.010083,0 -0.015524,0.00234 -0.022244,0.00556 0.008846,0.03314 0.175173,0.08981 0.175173,0.13625 0,0.04771 -0.275276,0.02238 -0.275276,0.06673 l 0,0.00557 c 0,0.05057 0.116591,0.04843 0.165744,0.0567 0.035465,0.00596 0.059291,0.01 0.082945,0.02827 0.026693,0.02062 0.017275,0.06796 0.046051,0.06796 0.059079,0 0.11328,-0.03615 0.175173,-0.03615 l 0.027807,0 c 0.140754,0 0.163794,0.15246 0.255924,0.16393 0.11944,0.01488 0.20661,-0.09998 0.31687,-0.09998 0.03841,0 0.0971,0.03869 0.15071,0.04671 0.04732,0.00708 0.14681,-0.002 0.14681,-0.04671 0,-0.07392 -0.25025,-0.136 -0.25025,-0.20298 l 0,-0.00278 c 0,-0.01806 0.01785,-0.0278 0.03614,-0.0278 l 0.00557,0 c 0.02853,0 0.08187,0.00717 0.09732,-0.01391 C 1.65398,1.67111 1.60852,1.64408 1.59392,1.64408 L 1.17128,1.64497 1.02389,1.64337 0.851514,1.64685 C 0.830518,1.63262 0.816014,1.58289 0.806192,1.52153 l 9.6e-4,0.01173 z"
         style="fill:#ffffff;stroke:#000000;stroke-width:0.05;stroke-miterlimit:4;stroke-opacity:1;stroke-dasharray:0.1, 0.05;stroke-dashoffset:0"
         id="path10" />
    </g>
    <rect
       height="78"
       style="fill:#ffffff;stroke:#000000;stroke-width:3;stroke-dasharray:10"
       width="105"
       x="86"
       y="87"
       id="rect12" />
    <ellipse
       sodipodi:ry="39"
       sodipodi:rx="10"
       sodipodi:cy="126"
       sodipodi:cx="82"
       d="m 92,126 c 0,21.53911 -4.477153,39 -10,39 -5.522847,0 -10,-17.46089 -10,-39 0,-21.53911 4.477153,-39 10,-39 5.522847,0 10,17.46089 10,39 z"
       cx="82"
       cy="126"
       rx="10"
       ry="39"
       style="fill:#ffffff;stroke:#000000;stroke-width:3;stroke-dasharray:10"
       transform="translate(4,0)"
       id="ellipse14" />
    <ellipse
       sodipodi:ry="39"
       sodipodi:rx="10"
       sodipodi:cy="126"
       sodipodi:cx="82"
       d="m 92,126 c 0,21.53911 -4.477153,39 -10,39 -5.522847,0 -10,-17.46089 -10,-39 0,-21.53911 4.477153,-39 10,-39 5.522847,0 10,17.46089 10,39 z"
       cx="82"
       cy="126"
       rx="10"
       ry="39"
       style="fill:#ffffff;stroke:#000000;stroke-width:3;stroke-dasharray:10"
       transform="translate(109,-0.5)"
       id="ellipse16" />
    <rect
       height="75"
       style="fill:#ffffff;stroke:none"
       transform="matrix(1.08571,0,0,0.994805,-15.08496,0.85198)"
       width="14"
       x="176"
       y="88"
       id="rect18" />
  </g>
  <g
     transform="matrix(85,0,0,85,121.10035,72.15004)"
     id="g20">
    <path
       inkscape:connector-curvature="0"
       d="m 0.906547,1.24253 0,0.10719 0.089323,0 0,-0.19652 C 0.984102,1.16109 0.906547,1.23159 0.906547,1.24253 z"
       style="fill:#ffffff;stroke-dasharray:10"
       id="path22" />
    <polygon
       points="1.10306,1.34972 1.21025,1.34972 1.20934,0.94237 1.10605,1.04457 "
       style="fill:#ffffff;stroke-dasharray:10"
       id="polygon24" />
    <path
       inkscape:connector-curvature="0"
       d="m 1.33531,1.34972 0.10719,0 0,-0.29924 c 0,-0.01102 -0.09409,-0.098413 -0.10719,-0.107189 z"
       style="fill:#ffffff;stroke-dasharray:10"
       id="path26" />
    <path
       inkscape:connector-curvature="0"
       d="m 1.54969,1.34972 0.08932,0 0,-0.09826 c 0,-0.01707 -0.00137,-0.00162 0.00359,-0.0125 L 1.54969,1.1532 z"
       style="fill:#ffffff;stroke-dasharray:10"
       id="path28" />
    <polygon
       points="0.790134,1.36342 1.27167,1.82876 1.75513,1.36312 "
       style="fill:#ffffff;stroke-dasharray:10"
       id="polygon30" />
    <path
       inkscape:connector-curvature="0"
       d="M 0.790134,1.36342 1.75513,1.36312 1.27167,1.82876 z M 1.33531,0.94329 C 1.34841,0.952066 1.4425,1.03946 1.4425,1.05048 l 0,0.29924 -0.10719,0 z m -0.12597,-9.17e-4 9.1e-4,0.407347 -0.10719,0 L 1.10605,1.04457 1.20934,0.942372 z M 0.906547,1.24253 c 0,-0.01094 0.077555,-0.08144 0.089323,-0.08933 l 0,0.19652 -0.089323,0 z M 1.54969,1.1532 1.6426,1.23895 C 1.63764,1.24984 1.63901,1.23439 1.63901,1.25146 l 0,0.09826 -0.08932,0 z M 1.78608,1.35832 1.27338,0.857813 0.761902,1.35689 1.27335,1.85499 z"
       style="fill:#000000;stroke-dasharray:10"
       id="path32" />
  </g>
</svg>

<?xml version="1.0"?>
<!--
Copyright (C) 2012 United States Government as represented by the Administrator of the
National Aeronautics and Space Administration.
All Rights Reserved.
-->

<!DOCTYPE svg PUBLIC "-//W3C//DTD SVG 1.1//EN" "http://www.w3.org/Graphics/SVG/1.1/DTD/svg11.dtd" >
<!--
MIL-STD-2525 tactical symbol icon image. During icon composition this image is multiplied by the desired frame color 
(e.g. black), then drawn on top of the frame and fill.
-->
<svg xmlns:xlink="http://www.w3.org/1999/xlink" height="400px" viewBox="0 0 400 400" width="400px"><g style="stroke-width:0" transform="scale(1.2) translate(47.5 30)"><g transform="scale(100)"><path d="M0.798685 1.21865 C0.798685 1.1511 0.816138 0.879422 0.857079 0.879422 C0.903685      0.879422 0.91815 1.18339 0.918264 1.25759 C0.918378 1.33169 0.903925 1.63295      0.857079 1.63295 C0.814449 1.63295 0.798685 1.36518 0.798685 1.2965 zM1.18796      1.22143 C1.18796 1.16121 1.18019 1.09287 1.17158 1.04039 C1.16663 1.01021      1.16245 0.985135 1.15575 0.956127 C1.14927 0.928068 1.13769 0.905139 1.13235      0.882206 L1.65509 0.882206 C1.68796 0.882206 1.71627 1.16405 1.71627      1.22699 L1.71627 1.29372 C1.71627 1.35653 1.68886 1.63295 1.65509 1.63295 L1.13235      1.63295 C1.13771 1.60993 1.14798 1.58682 1.15515 1.55843 C1.16146 1.53342      1.16683 1.50532 1.17128 1.47724 C1.17956 1.42509 1.18797 1.35803 1.18797      1.29929 zM0.993323 1.24924 C0.993323 1.17822 0.987417 1.11611 0.982201      1.05182 C0.979721 1.02123 0.973473 0.98945 0.968988 0.96215 C0.963701 0.929965      0.951669 0.9063 0.946055 0.882205 L1.07674 0.882205 C1.09884 0.882205      1.11977 1.02156 1.12512 1.05349 C1.13633 1.12041 1.13216 1.18782 1.14021 1.25549      C1.14482 1.2943 1.13177 1.42162 1.12617 1.45994 C1.12182 1.48973 1.11643      1.52181 1.109 1.55121 C1.10133 1.58157 1.08705 1.61256 1.0823 1.63295 L0.946055      1.63295 C0.951614 1.60909 0.963288 1.58574 0.969484 1.5535 C0.97511      1.52426 0.979484 1.49687 0.982288 1.46621 C0.987921 1.40459 0.993323 1.34234      0.993323 1.27426 zM1.76632 1.25758 C1.76632 1.14585 1.74485 0.951988 1.70793      0.882205 L1.88588 0.882205 C1.94053 0.996091 1.97208 1.09149 1.97208      1.26036 C1.97208 1.33355 1.96466 1.40861 1.95042 1.46671 C1.94178 1.50195 1.9345      1.52246 1.92374 1.55403 C1.91522 1.57904 1.8924 1.61691 1.88866 1.63295      L1.70793 1.63295 C1.74454 1.56375 1.76632 1.36875 1.76632 1.25758 zM0.926591      1.2548 C0.926591 1.18696 0.924918 1.11185 0.918044 1.04924 C0.914619 1.01805      0.908729 0.986579 0.902717 0.956127 C0.895989 0.922028 0.883166 0.901449      0.876544 0.876642 L0.915469 0.876642 C0.968418 0.876642 0.982201 1.14951      0.982201 1.22421 L0.982201 1.2965 C0.982201 1.37937 0.968221 1.60508 0.926591      1.63295 L0.879323 1.63295 C0.919032 1.55791 0.926591 1.37452 0.926591      1.2548 zM0.87376 0.86552 C0.831788 0.86552 0.830831 0.896256 0.819894 0.928437      C0.810623 0.955724 0.805441 0.994752 0.801166 1.02649 C0.792607 1.08996      0.788489 1.17613 0.787457 1.24635 C0.787028 1.35212 0.798855 1.61115 0.851516      1.64685 L1.02389 1.64337 L1.17128 1.64497 L1.59392 1.64407 C1.60852 1.64407      1.65398 1.67111 1.66066 1.68022 C1.64521 1.7013 1.59187 1.69413 1.56334      1.69413 L1.55778 1.69413 C1.53949 1.69413 1.52163 1.70387 1.52163 1.72193      L1.52163 1.72471 C1.52163 1.79169 1.77188 1.85377 1.77188 1.92769 C1.77188      1.9724 1.67239 1.98148 1.62507 1.9744 C1.57147 1.96638 1.51277 1.92769 1.47436      1.92769 C1.3641 1.92769 1.27693 2.04255 1.15749 2.02767 C1.06536 2.0162      1.04232 1.86374 0.901568 1.86374 L0.873761 1.86374 C0.811867 1.86374 0.757667      1.89989 0.698588 1.89989 C0.669812 1.89989 0.67923 1.85255 0.652537 1.83193      C0.628883 1.81366 0.605056 1.80962 0.569592 1.80366 C0.520438 1.79539      0.403848 1.79753 0.403848 1.74696 L0.403848 1.74139 C0.403848 1.69704 0.679124      1.72237 0.679124 1.67466 C0.679124 1.62822 0.512797 1.57155 0.503951      1.53841 C0.510671 1.53519 0.516112 1.53285 0.526195 1.53285 L0.587364 1.53285      L0.718014 1.53908 L0.787345 1.53068 L0.807156 1.53326 L0.806195 1.52153      L0.780983 1.52126 C0.75803 1.52126 0.729648 1.53308 0.707534 1.52949 C0.685014      1.52584 0.655735 1.52778 0.628967 1.5274 C0.60053 1.52699 0.492829 1.509      0.492829 1.54119 C0.492829 1.57928 0.618085 1.61155 0.648538 1.6691 C0.631951      1.70045 0.526518 1.69826 0.48003 1.70635 C0.448727 1.7118 0.418463 1.71129      0.400258 1.72946 C0.378868 1.75082 0.403857 1.77619 0.422727 1.78647 C0.45803      1.80571 0.547786 1.80746 0.593514 1.81866 C0.621813 1.82559 0.647352      1.8325 0.657821 1.85723 C0.667274 1.87956 0.669356 1.91101 0.704148 1.91101      L0.706931 1.91101 C0.750821 1.91101 0.812758 1.87486 0.870982 1.87486 L0.893226      1.87486 C1.02176 1.87486 1.03426 2.02856 1.14899 2.03618 C1.2216 2.04101      1.25882 2.01919 1.3122 1.99632 C1.34515 1.9822 1.42615 1.93881 1.46324      1.93881 L1.4688 1.93881 C1.50664 1.93881 1.53764 1.9604 1.56995 1.97113 C1.60392      1.98243 1.63935 1.99164 1.6829 1.99164 L1.69403 1.99164 C1.71977 1.99164      1.74125 1.98721 1.76044 1.9802 C1.78624 1.97077 1.78401 1.9599 1.78309      1.93039 C1.78188 1.89157 1.7376 1.8628 1.71127 1.8465 C1.68181 1.82827 1.64165      1.80819 1.60966 1.79239 C1.59224 1.78379 1.57728 1.77323 1.56219 1.76201      C1.53511 1.74187 1.54177 1.74952 1.52719 1.71915 C1.55247 1.6814 1.67178      1.72342 1.67178 1.68022 C1.67178 1.66677 1.62466 1.65145 1.61617 1.64407      L1.75242 1.64468 L1.87198 1.64407 L1.87198 1.64964 L1.91647 1.64964 C1.9405      1.64964 1.98739 1.50789 1.99545 1.47558 C2.01262 1.40669 2.02213 1.33398 2.02213      1.24924 C2.02213 1.13713 1.98933 0.994375 1.95168 0.919288 C1.94064      0.897264 1.93402 0.869193 1.90268 0.868185 C1.87015 0.867138 1.83528 0.8683      1.80247 0.8683 C1.73303 0.8683 1.67319 0.8683 1.60783 0.8683 L1.16016 0.8683      L0.912699 0.868229 L0.873762 0.86552 z" style="fill:rgb(0,0,0)"/><path d="M0.807154 1.53326 L0.787343 1.53068 L0.718012 1.53908 L0.587362 1.53285 L0.526193      1.53285 C0.51611 1.53285 0.510669 1.53519 0.503949 1.53841 C0.512795 1.57155      0.679122 1.62822 0.679122 1.67466 C0.679122 1.72237 0.403846 1.69704 0.403846      1.74139 L0.403846 1.74696 C0.403846 1.79753 0.520437 1.79539 0.56959      1.80366 C0.605055 1.80962 0.628881 1.81366 0.652535 1.83193 C0.679228 1.85255      0.66981 1.89989 0.698586 1.89989 C0.757665 1.89989 0.811866 1.86374 0.873759      1.86374 L0.901566 1.86374 C1.04232 1.86374 1.06536 2.0162 1.15749 2.02767      C1.27693 2.04255 1.3641 1.92769 1.47436 1.92769 C1.51277 1.92769 1.57146      1.96638 1.62507 1.9744 C1.67239 1.98148 1.77188 1.9724 1.77188 1.92769 C1.77188      1.85377 1.52163 1.79169 1.52163 1.72471 L1.52163 1.72193 C1.52163 1.70387      1.53948 1.69413 1.55777 1.69413 L1.56334 1.69413 C1.59187 1.69413 1.64521      1.7013 1.66066 1.68022 C1.65398 1.67111 1.60852 1.64408 1.59392 1.64408      L1.17128 1.64497 L1.02389 1.64337 L0.851514 1.64685 C0.830518 1.63262 0.816014      1.58289 0.806192 1.52153 L0.807152 1.53326 z" style="fill:rgb(255,255,255)"/></g><rect height="78" style="fill:rgb(255,255,255);stroke:rgb(0,0,0);stroke-width:3" transform="matrix(1 0 0 1 0 0)" width="105" x="86" y="87"/><ellipse cx="82" cy="126" rx="10" ry="39" style="fill:rgb(255,255,255);stroke:rgb(0,0,0);stroke-width:3" transform="matrix(1 0 0 1 0 0) translate(1 0) translate(1 0) translate(1 0) translate(1 0) translate(1 0) translate(1 0) translate(1 0) translate(-1 0) translate(-1 0) translate(-1 0)"/><ellipse cx="82" cy="126" rx="10" ry="39" style="fill:rgb(255,255,255);stroke:rgb(0,0,0);stroke-width:3" transform="matrix(1 0 0 1 98 40) translate(9 -40.5) translate(1 0) translate(1 0) translate(0 1) translate(1 0) translate(-1 0) translate(0 -1)"/><rect height="75" style="fill:rgb(255,255,255);stroke:none;stroke-width:1" transform="matrix(1 0 0 1 0 0) translate(176 125.5) scale(1.08571 1) translate(-176 -125.5) translate(183 164) scale(1 0.994805) translate(-183 -164)" width="14" x="176" y="88"/></g><g transform="scale(85) translate(0.72 0.73) translate(-0.66 -0.54) translate(1.36471 0.658824)"><path d="M0.906547 1.24253 L0.906547 1.34972 L0.99587 1.34972 L0.99587 1.1532 C0.984102 1.16109     0.906547 1.23159 0.906547 1.24253 z" style="fill:rgb(255,255,255)"/><polygon points="1.10605,1.04457 1.10306,1.34972 1.21025,1.34972 1.20934,0.94237" style="fill:rgb(255,255,255)"/><path d="M1.33531 1.34972 L1.4425 1.34972 L1.4425 1.05048 C1.4425 1.03946 1.34841 0.952067     1.33531 0.943291 z" style="fill:rgb(255,255,255)"/><path d="M1.54969 1.34972 L1.63901 1.34972 L1.63901 1.25146 C1.63901 1.23439 1.63764 1.24984     1.6426 1.23896 L1.54969 1.1532 z" style="fill:rgb(255,255,255)"/><polygon points="1.27167,1.82876 1.75513,1.36312 0.790134,1.36342" style="fill:rgb(255,255,255)"/><path d="M0.790134 1.36342 L1.75513 1.36312 L1.27167 1.82876 zM1.33531 0.94329 C1.34841 0.952066     1.4425 1.03946 1.4425 1.05048 L1.4425 1.34972 L1.33531 1.34972 zM1.20934     0.942373 L1.21025 1.34972 L1.10306 1.34972 L1.10605 1.04457 L1.20934 0.942372     zM0.906547 1.24253 C0.906547 1.23159 0.984102 1.16109 0.99587 1.1532 L0.99587     1.34972 L0.906547 1.34972 zM1.54969 1.1532 L1.6426 1.23895 C1.63764     1.24984 1.63901 1.23439 1.63901 1.25146 L1.63901 1.34972 L1.54969 1.34972 zM1.78608     1.35832 L1.27338 0.857813 L0.761902 1.35689 L1.27335 1.85499 z" style="fill:rgb(0,0,0)"/></g></svg>
